X:1
T:Tempted and Tried
T:James McGranahan, 1877
T:Tempted and Tried
T:Public Domain
T:Public Domain
T:Public Domain
C:James McGranahan, 1877
Z:Public Domain
%%score 1 ( 2 3 )
L:1/8
M:3/8
K:C
V:1 treble 
V:2 bass 
V:3 bass 
V:1
 [EG][^D^F][EG] | [Ec]2 [EG]/[EG]/ | [EG][^D^F][EG] | [CE]2 ([CE]/[CE]/) | %4
w: 1.~Tempt- ed and|tried! Oh! the|ter- ri- ble|tide May~be *|
w: 2.~Tempt- ed and|tried, there is|One at thy|side, And *|
w: 3.~Tempt- ed and|tried what- e’er|may be- tide,|In His *|
w: 4.~Tempt- ed and|tried! Yet the|Lord will a-|bide, Thy *|
w: 5.~Tempt- ed and|tried, th- e|Sav- ior who|died, Hath *|
 [DF][^CE][DF][B,D][CE][DF] | [FA][EG][^D^F] | [EG]2 [EG]/[EG]/ | [EG][^D^F][EG] | %8
w: rag- ing and deep, may be|wrath- ful and|wide! Yet its|fu- ry is|
w: nev- er in vain shall His|child- ren con-|fide! He shall|save and de-|
w: se- cret pa- vil- ion His|child- ren shall|hide, ’Neath the|sha- dow- ing|
w: faith- ful Re- deem- er, thy|keep- er, and|guide, Thy shield|and thy sword,|
w: called thee to suf- fer and|reign by His|side, Hi- s|cross thou shalt|
 [Ec]2 [EG]/[EG]/ | [CE][DF][EG] | [FA]2 ([FA]/[FA]/) | [Ac]>[GB][FA] | [EG][CE][Ec] | %13
w: vain, for the|Lord shall re-|strain, And~for- *|ev- er and|ev- er Je-|
w: fend, for He|loves to the|end, A- *|dor- a- ble|mas- ter and|
w: wing of e-|ter- ni- ty’s|king, His *|child- ren shall|trust, and His|
w: thine ex- ceed-|ing re- ward,|Then e- *|nough for the|ser- vant to|
w: bear, and His|crown thou shalt|wear, And~for- *|ev- er and|ev- er His|
 [DB][FA][FB] | [Ec]3 ||"^Refrain" [Gd][Gd][Gd] | [Gd]2 [Ge]/[Fd]/ | [Ec][GB][FA] | [EG]2 [EG] | %19
w: ho- vah shall|reign.|||||
w: glor- i- ous|friend!|||||
w: ser- vants shall|sing.|Tempt- ed and|tried, yet the|Lord at thy|side, Shall|
w: be as his|Lord.|||||
w: glo- ry shalt|share.|||||
 [EG][Ec][GB] | [FA][Fd][Ac] | [GB][GA][FB] | [Ec]3 |] %23
w: ||||
w: ||||
w: guide thee, and|keep thee, Though|tempt- ed and|tried.|
w: ||||
w: ||||
V:2
 [C,C][C,C][C,C] | [C,G,]2 [C,C]/[C,C]/ | [C,C][C,C][C,C] | [C,G,]2 ([C,G,]/[C,G,]/) | %4
 [G,,G,][G,,G,][G,,G,][G,,G,][G,,G,][G,,B,] | [C,C][C,C][C,C] | [C,C]2 [C,C]/[C,C]/ | %7
 [C,C][C,C][C,C] | [C,G,]2 [C,C]/[C,C]/ | [C,G,][C,G,][C,C] | [F,C]2 ([F,C]/[F,C]/) | %11
 [F,C]>[F,C][F,C] | [C,C][C,G,][C,G,] | [G,,G,][G,,G,][G,,G,] | [C,G,]3 || [G,B,][G,B,][G,B,] | %16
 [G,B,]2 [G,C]/G,/ | [C,G,][E,G,][F,C] | [C,C]2 [C,C] | [C,C][C,G,][E,G,] | [F,C][F,A,][^F,D] | %21
 [G,D][G,C]G, | [C,G,]3 |] %23
V:3
 x3 | x3 | x3 | x3 | x6 | x3 | x3 | x3 | x3 | x3 | x3 | x3 | x3 | x3 | x3 || x3 | x5/2 G,/ | x3 | %18
 x3 | x3 | x3 | x2 G, | x3 |] %23

